modules/zondicons/icons/brightness-down.svg

<?xml version="1.0" encoding="UTF-8" standalone="no"?>
<svg width="20px" height="20px" viewBox="0 0 20 20" version="1.1" xmlns="http://www.w3.org/2000/svg" xmlns:xlink="http://www.w3.org/1999/xlink">
    <!-- Generator: Sketch 3.7.2 (28276) - http://www.bohemiancoding.com/sketch -->
    <title>brightness-down</title>
    <desc>Created with Sketch.</desc>
    <defs></defs>
    <g id="Page-1" stroke="none" stroke-width="1" fill="none" fill-rule="evenodd">
        <g id="brightness-down" fill="#000000">
            <path d="M10,13 C11.6568542,13 13,11.6568542 13,10 C13,8.34314575 11.6568542,7 10,7 C8.34314575,7 7,8.34314575 7,10 C7,11.6568542 8.34314575,13 10,13 Z M9,4 C9,3.44771525 9.44386482,3 10,3 C10.5522847,3 11,3.44386482 11,4 C11,4.55228475 10.5561352,5 10,5 C9.44771525,5 9,4.55613518 9,4 Z M13.5355339,5.05025253 C13.9260582,4.65972824 14.5565005,4.65700558 14.9497475,5.05025253 C15.3402718,5.44077682 15.3429944,6.07121914 14.9497475,6.46446609 C14.5592232,6.85499039 13.9287809,6.85771305 13.5355339,6.46446609 C13.1450096,6.0739418 13.142287,5.44349949 13.5355339,5.05025253 Z M16,9 C16.5522847,9 17,9.44386482 17,10 C17,10.5522847 16.5561352,11 16,11 C15.4477153,11 15,10.5561352 15,10 C15,9.44771525 15.4438648,9 16,9 Z M14.9497475,13.5355339 C15.3402718,13.9260582 15.3429944,14.5565005 14.9497475,14.9497475 C14.5592232,15.3402718 13.9287809,15.3429944 13.5355339,14.9497475 C13.1450096,14.5592232 13.142287,13.9287809 13.5355339,13.5355339 C13.9260582,13.1450096 14.5565005,13.142287 14.9497475,13.5355339 Z M11,16 C11,16.5522847 10.5561352,17 10,17 C9.44771525,17 9,16.5561352 9,16 C9,15.4477153 9.44386482,15 10,15 C10.5522847,15 11,15.4438648 11,16 Z M6.46446609,14.9497475 C6.0739418,15.3402718 5.44349949,15.3429944 5.05025253,14.9497475 C4.65972824,14.5592232 4.65700558,13.9287809 5.05025253,13.5355339 C5.44077682,13.1450096 6.07121914,13.142287 6.46446609,13.5355339 C6.85499039,13.9260582 6.85771305,14.5565005 6.46446609,14.9497475 Z M4,11 C3.44771525,11 3,10.5561352 3,10 C3,9.44771525 3.44386482,9 4,9 C4.55228475,9 5,9.44386482 5,10 C5,10.5522847 4.55613518,11 4,11 Z M5.05025253,6.46446609 C4.65972824,6.0739418 4.65700558,5.44349949 5.05025253,5.05025253 C5.44077682,4.65972824 6.07121914,4.65700558 6.46446609,5.05025253 C6.85499039,5.44077682 6.85771305,6.07121914 6.46446609,6.46446609 C6.0739418,6.85499039 5.44349949,6.85771305 5.05025253,6.46446609 Z" id="Combined-Shape"></path>
        </g>
    </g>
</svg>

<svg width="20" height="20" viewBox="0 0 20 20" xmlns="http://www.w3.org/2000/svg"><path d="M10 13a3 3 0 1 0 0-6 3 3 0 0 0 0 6zM9 4c0-.552.444-1 1-1 .552 0 1 .444 1 1 0 .552-.444 1-1 1-.552 0-1-.444-1-1zm4.536 1.05a.998.998 0 0 1 1.414 0 .998.998 0 0 1 0 1.414.998.998 0 0 1-1.414 0 .998.998 0 0 1 0-1.414zM16 9c.552 0 1 .444 1 1 0 .552-.444 1-1 1-.552 0-1-.444-1-1 0-.552.444-1 1-1zm-1.05 4.536a.998.998 0 0 1 0 1.414.998.998 0 0 1-1.414 0 .998.998 0 0 1 0-1.414.998.998 0 0 1 1.414 0zM11 16c0 .552-.444 1-1 1-.552 0-1-.444-1-1 0-.552.444-1 1-1 .552 0 1 .444 1 1zm-4.536-1.05a.998.998 0 0 1-1.414 0 .998.998 0 0 1 0-1.414.998.998 0 0 1 1.414 0 .998.998 0 0 1 0 1.414zM4 11c-.552 0-1-.444-1-1 0-.552.444-1 1-1 .552 0 1 .444 1 1 0 .552-.444 1-1 1zm1.05-4.536a.998.998 0 0 1 0-1.414.998.998 0 0 1 1.414 0 .998.998 0 0 1 0 1.414.998.998 0 0 1-1.414 0z" fill="#000" fill-rule="evenodd"/></svg>
